X: 128
T:Missa Quem dicunt homines / Credo
N: Derived from Jos1003c-Missa_Quem_dicunt_homines-Credo.krn
C: Josquin des Prez
%%abc-version 2.0
%%abcx-abcm2ps-target-version 5.9.1 (29 Sep 2008)
%%abc-creator hum2abc beta
%%abcx-conversion-date 2019/02/12 16:15:44
%%abc-edited-by Jesse Rodin
%%abc-edited-by Jesse Rodin (May 2013)
%%abcx-initial-encoding-date 2013/05/09/
%%humdrum-veritas 1587374859
%%humdrum-veritas-data 348348571
%%linebreak <none>
%%barnumbers 0
L: 1/4
M: 2/1
Q: 1/2=120
%%staves [1 2 3 4]
V: 1 clef=treble
V: 2 clef=treble-8
V: 3 clef=treble-8
V: 4 clef=bass
K: C
[V:1] z8 | 
[V:2] c4c2c2- | 
[V:3] z8 | 
[V:4] z8 | 
[V:1] z4z2G2 | 
[V:2] c2c2d2e2 | 
[V:3] z8 | 
[V:4] z8 | 
[V:1] c3BA2G2 | 
[V:2] c4z2c2 | 
[V:3] z8 | 
[V:4] z8 | 
[V:1] A3GF2E2 | 
[V:2] f3ed2c2 | 
[V:3] z8 | 
[V:4] z8 | 
[V:1] D4C4 | 
[V:2] f2f2e4- | 
[V:3] z8 | 
[V:4] z4C,4 | 
[V:1] z2G2c3B | 
[V:2] e4z2e2 | 
[V:3] z8 | 
[V:4] C,2C,4C,2 | 
[V:1] A2G3FED | 
[V:2] f2e4c2- | 
[V:3] z2G2c3B | 
[V:4] D,2E,2C,4 | 
[V:1] C2c3BAG | 
[V:2] cde2A2c2 | 
[V:3] A2G2z2A2- | 
[V:4] z2C,2F,3E, | 
[V:1] F2G2A3B | 
[V:2] d2e4d2 | 
[V:3] A2c3BA2- | 
[V:4] D,2C,2F,2F,2 | 
[V:1] c2B2G4- | 
[V:2] e8 | 
[V:3] A2G2c2c2 | 
[V:4] E,4z2E,2- | 
[V:1] G4z2G2- | 
[V:2] z2e4e2 | 
[V:3] B4z2c2- | 
[V:4] E,2E,2C,2C,2 | 
[V:1] G2G2A2G2 | 
[V:2] d2e2f2ed | 
[V:3] c2B2c2B2 | 
[V:4] G,4F,2G,2 | 
[V:1] E2G3FE2- | 
[V:2] c4g4 | 
[V:3] G3AB2c2- | 
[V:4] C,4z4 | 
[V:1] E2D2E4 | 
[V:2] g2g3fe2- | 
[V:3] c2B2c3B | 
[V:4] G,4C,2C2- | 
[V:1] G4C2c2- | 
[V:2] e2d2e4 | 
[V:3] G4z4 | 
[V:4] C2B,2A,2A,2 | 
[V:1] c2B2A2A2 | 
[V:2] z8 | 
[V:3] g4d2f2- | 
[V:4] G,4z4 | 
[V:1] G2c3BBA | 
[V:2] c4G2g2- | 
[V:3] f2e2d2d2 | 
[V:4] z4G,4 | 
[V:1] c4z4 | 
[V:2] g2e2d2d2 | 
[V:3] c3BG2g2- | 
[V:4] C,2C4B,2 | 
[V:1] z2c4B2 | 
[V:2] c4z2g2- | 
[V:3] g2f2e4 | 
[V:4] A,2A,2G,4- | 
[V:1] B3A/G/A2G2- | 
[V:2] g2g2f2e2 | 
[V:3] z8 | 
[V:4] G,4z4 | 
[V:1] GFEDC2c2- | 
[V:2] g6f2 | 
[V:3] z8 | 
[V:4] z8 | 
[V:1] c2B2G2c2- | 
[V:2] e2g4f2 | 
[V:3] z8 | 
[V:4] z8 | 
[V:1] c2B2A2G2- | 
[V:2] e2d3cBA | 
[V:3] z4d3c | 
[V:4] z8 | 
[V:1] GFEDC2c2- | 
[V:2] G2g4f2 | 
[V:3] B2c2A4 | 
[V:4] z8 | 
[V:1] c2B2A2G2 | 
[V:2] e2d2c4 | 
[V:3] G4z4 | 
[V:4] z2G,2A,2C2- | 
[V:1] F3E/D/C2c2 | 
[V:2] d4e3f | 
[V:3] z4c4 | 
[V:4] C2B,2A,4 | 
[V:1] B2d3cc2- | 
[V:2] g2a4g2 | 
[V:3] d2f4e2 | 
[V:4] G,2D,4E,2 | 
[V:1] c2B2c4- | 
[V:2] a2g2e4- | 
[V:3] d4c4- | 
[V:4] F,2G,2C,4- | 
[V:1] c8- | 
[V:2] e8- | 
[V:3] c4z4 | 
[V:4] C,4z2C2- | 
[V:1] c4z4 | 
[V:2] e4d4 | 
[V:3] z2g4g2 | 
[V:4] C2C2B,2G,2 | 
[V:1] z8 | 
[V:2] z2g4g2 | 
[V:3] f2d2e3f | 
[V:4] A,2B,2C4 | 
[V:1] z8 | 
[V:2] e3fg2e2 | 
[V:3] g4z4 | 
[V:4] z2C4C2 | 
[V:1] z8 | 
[V:2] f2gfede2- | 
[V:3] z2g4g2 | 
[V:4] A,2B,2CB,B,A,/G,/ | 
[V:1] z8 | 
[V:2] e2dcB4 | 
[V:3] e2f2g4 | 
[V:4] A,4G,4 | 
[V:1] z8 | 
[V:2] z8 | 
[V:3] e2f2g3f | 
[V:4] A,4B,2C2- | 
[V:1] z8 | 
[V:2] z2e2f2g2- | 
[V:3] edc4B2 | 
[V:4] CB,A,G,A,2G,2 | 
[V:1] z2c4B2 | 
[V:2] g^f^feg4 | 
[V:3] c4z2d2 | 
[V:4] A,4G,4 | 
[V:1] G2A2D2d2- | 
[V:2] z4g4 | 
[V:3] e2d2BABc | 
[V:4] z4G,4 | 
[V:1] dcBAB2G2- | 
[V:2] g2g2g3f | 
[V:3] d6B2 | 
[V:4] G,2G,4G,2 | 
[V:1] G2^F2G4 | 
[V:2] e2dcB4 | 
[V:3] c4d4 | 
[V:4] A,4G,4 | 
[V:1] z2c2B2A2 | 
[V:2] z2g4f2 | 
[V:3] c2e3dc2 | 
[V:4] C,4E,2F,2 | 
[V:1] d3cB2A2 | 
[V:2] d4e2f2 | 
[V:3] B2G4F2 | 
[V:4] G,F,G,A,B,2C2- | 
[V:1] G8 | 
[V:2] d4e4- | 
[V:3] G4z2g2- | 
[V:4] C2B,2C4- | 
[V:1] z2c4c2 | 
[V:2] e4z4 | 
[V:3] g2g2f2e2- | 
[V:4] C4z4 | 
[V:1] B2A2c3B | 
[V:2] z8 | 
[V:3] e2f3ec2 | 
[V:4] z4F,4 | 
[V:1] G2A2B2A2- | 
[V:2] z8 | 
[V:3] e2d4c2 | 
[V:4] E,2F,2G,2A,2 | 
[V:1] A2G4^F2 | 
[V:2] z8 | 
[V:3] d2e4dc | 
[V:4] B,2C2A,4 | 
[V:1] G8- | 
[V:2] z2d2d2d2 | 
[V:3] B4z2d2 | 
[V:4] G,8- | 
[V:1] G8 | 
[V:2] B2G2BABc | 
[V:3] d2d2B2G2 | 
[V:4] G,8- | 
[V:1] z8 | 
[V:2] d4z2d2 | 
[V:3] BABcd2G2 | 
[V:4] G,8 | 
[V:1] z8 | 
[V:2] d2d2B2G2 | 
[V:3] BABcd2e2 | 
[V:4] z4z2E,2 | 
[V:1] z8 | 
[V:2] BABcd2B2- | 
[V:3] d2BABcd2 | 
[V:4] G,2G,4G,2 | 
[V:1] z8 | 
[V:2] B2e3dc2- | 
[V:3] G2AGABcd | 
[V:4] E,2C,2C3B, | 
[V:1] z8 | 
[V:2] c2B2c4 | 
[V:3] efg4^f2 | 
[V:4] A,2G,2A,4 | 
[V:1] z4B4- | 
[V:2] z2d4d2 | 
[V:3] g8- | 
[V:4] G,8 | 
[V:1] B2B2c4 | 
[V:2] e4c2f2- | 
[V:3] g4z4 | 
[V:4] z4F,4- | 
[V:1] A2d3cBA | 
[V:2] fedcB4- | 
[V:3] z2d4d2 | 
[V:4] F,2F,2G,4 | 
[V:1] G2A2c4 | 
[V:2] B2c2A4 | 
[V:3] e4c2f2- | 
[V:4] E,2A,3G,F,E, | 
[V:1] d4e4- | 
[V:2] a6gf | 
[V:3] f2edc4- | 
[V:4] D,4A,4- | 
[V:1] e2dcB2d2- | 
[V:2] e2f2g4- | 
[V:3] c4d4- | 
[V:4] A,4G,3A, | 
[V:1] d2c4B2 | 
[V:2] g8- | 
[V:3] d2e2d4 | 
[V:4] B,2C2G,4 | 
[V:1] c4z2G2- | 
[V:2] g4e4- | 
[V:3] c8 | 
[V:4] C,8- | 
[V:1] G2G2G2G2 | 
[V:2] e8 | 
[V:3] z2c2c2c2- | 
[V:4] C,8 | 
[V:1] A2B2G4- | 
[V:2] z2G2c3B | 
[V:3] ccd2e2c2- | 
[V:4] z4C,4 | 
[V:1] G4z4 | 
[V:2] A2G2c2c2 | 
[V:3] c2BAG4 | 
[V:4] C,2C,4C,2 | 
[V:1] z2E2E2E2 | 
[V:2] B4z2G2 | 
[V:3] z2G2c3B | 
[V:4] D,2E,2C,4- | 
[V:1] E8 | 
[V:2] c3BA2G2- | 
[V:3] A2G2c2c2 | 
[V:4] C,4C,4 | 
[V:1] D4G3F | 
[V:2] G2g3fed | 
[V:3] B8 | 
[V:4] G,3G,G,2G,2 | 
[V:1] EDd3cc2- | 
[V:2] g4z2e2 | 
[V:3] z2B2c4 | 
[V:4] G,2G,2A,4 | 
[V:1] c2B2c4- | 
[V:2] f2g3fed | 
[V:3] d4e4 | 
[V:4] z2G,2C3B, | 
[V:1] c8- | 
[V:2] c2c2f4 | 
[V:3] z2A4GF | 
[V:4] A,G,F,4E,D, | 
[V:1] c4z4 | 
[V:2] e8 | 
[V:3] G2A3Gc2- | 
[V:4] C,2C3B,A,2- | 
[V:1] z4z2G2 | 
[V:2] z2G2A2B2 | 
[V:3] cBe2d4 | 
[V:4] A,G,E,2F,2G,2 | 
[V:1] G6F2 | 
[V:2] cBcde2d2- | 
[V:3] z2c3BA2 | 
[V:4] C,4C,2D,2 | 
[V:1] E2C2D4 | 
[V:2] d2c4B2 | 
[V:3] G2A2F4 | 
[V:4] E,2F,2D,4 | 
[V:1] E8 ||  
[V:2] c8 ||  
[V:3] G8 ||  
[V:4] C,8 ||  
[V:1]  [K:C] [K:clef=treble][M:2/1]z8 | 
[V:2]  [K:C] [K:clef=treble-8][M:2/1]z8 | 
[V:3]  [K:C] [K:clef=treble-8][M:2/1]G4c4- | 
[V:4]  [K:C] [K:clef=bass][M:2/1]C,8 | 
[V:1] z8 | 
[V:2] z2c2f3f | 
[V:3] c2c/B/A/G/A2A2 | 
[V:4] F,6F,2 | 
[V:1] G4c4- | 
[V:2] e2d2e3d | 
[V:3] B2B2G4 | 
[V:4] G,2G,2C,4 | 
[V:1] c2c/B/A/G/A2A2 | 
[V:2] e2f3eed/c/ | 
[V:3] z8 | 
[V:4] z8 | 
[V:1] B2B2G4 | 
[V:2] d4e4 | 
[V:3] G4c4- | 
[V:4] z4C,4 | 
[V:1] z8 | 
[V:2] z2c2f3f | 
[V:3] c2c/B/A/G/A2A2 | 
[V:4] F,6F,2 | 
[V:1] G4c4- | 
[V:2] e2d2e4- | 
[V:3] B2B2G4 | 
[V:4] G,2G,2C,4 | 
[V:1] c2c/B/A/G/A2A2 | 
[V:2] e2e2f4 | 
[V:3] A4d4 | 
[V:4] z4D,4 | 
[V:1] B2B2G4- | 
[V:2] g4e4 | 
[V:3] d4c4- | 
[V:4] G,4C,4 | 
[V:1] G2G2G4 | 
[V:2] d6e2 | 
[V:3] c2BAB4 | 
[V:4] G,8 | 
[V:1] A4G4- | 
[V:2] f4e4 | 
[V:3] c8 | 
[V:4] F,3E,C,2C2- | 
[V:1] G2G2A2c2- | 
[V:2] z4c4 | 
[V:3] d4e3f | 
[V:4] C2B,2A,4 | 
[V:1] c2BAB4 | 
[V:2] d8 | 
[V:3] g6g2 | 
[V:4] G,8 | 
[V:1] z4c4 | 
[V:2] e8 | 
[V:3] g8 | 
[V:4] C8 | 
[V:1] c8 | 
[V:2] a8 | 
[V:3] f8 | 
[V:4] F,8 | 
[V:1] B8 | 
[V:2] g4g4- | 
[V:3] d6d2 | 
[V:4] G,8 | 
[V:1] A4A4 | 
[V:2] g2^fe^f4 | 
[V:3] d8- | 
[V:4] D,4D,4 | 
[V:1] B8 ||  
[V:2] g8 ||  
[V:3] d8 ||  
[V:4] G,8 ||  
[V:1]  [K:C] [K:clef=treble][M:2/1]z8 | 
[V:2]  [K:C] [K:clef=treble-8][M:2/1]c4g2g2 | 
[V:3]  [K:C] [K:clef=treble-8][M:2/1]z8 | 
[V:4]  [K:C] [K:clef=bass][M:2/1]z8 | 
[V:1] z8 | 
[V:2] g3f/e/d2e2- | 
[V:3] z8 | 
[V:4] G,3A,B,2C2 | 
[V:1] z8 | 
[V:2] edcBA2a2- | 
[V:3] z8 | 
[V:4] A,2C3B,A,G, | 
[V:1] z8 | 
[V:2] agg4^f2 | 
[V:3] z8 | 
[V:4] F,2G,2A,4 | 
[V:1] z8 | 
[V:2] g2GABcde | 
[V:3] z8 | 
[V:4] G,8 | 
[V:1] z8 | 
[V:2] fedcd2c2- | 
[V:3] z4z2G2 | 
[V:4] F,6E,2 | 
[V:1] z4z2C2 | 
[V:2] c2B2c4- | 
[V:3] d2d2e2g2- | 
[V:4] D,4C,4- | 
[V:1] G2G2A2c2- | 
[V:2] c4z4 | 
[V:3] g2fef2e2 | 
[V:4] C,4z4 | 
[V:1] c2BABAGF | 
[V:2] z4z2G2 | 
[V:3] fedcd4 | 
[V:4] z8 | 
[V:1] EDEFG2A2- | 
[V:2] ABcde2c2 | 
[V:3] z2c3BAG | 
[V:4] z8 | 
[V:1] AGG4^F2 | 
[V:2] f2e4dc | 
[V:3] F2G2A4 | 
[V:4] C8 | 
[V:1] G6F2 | 
[V:2] B4z4 | 
[V:3] G3AB3A/B/ | 
[V:4] D8 | 
[V:1] E3D/C/D4 | 
[V:2] g8 | 
[V:3] c2A2G4 | 
[V:4] C6B,2 | 
[V:1] E4F4 | 
[V:2] a8 | 
[V:3] z4c4- | 
[V:4] A,2G,2F,3E, | 
[V:1] E4G4- | 
[V:2] g4G4- | 
[V:3] c4d4- | 
[V:4] C,2C4B,A, | 
[V:1] G4A4- | 
[V:2] G4c4- | 
[V:3] d4c4 | 
[V:4] B,4A,4- | 
[V:1] A4G4 | 
[V:2] c2BAB4 | 
[V:3] e3de2d2- | 
[V:4] A,2G,F,E,2G,2 | 
[V:1] c4d2f2- | 
[V:2] A2G4F2 | 
[V:3] d2c4B2 | 
[V:4] F,2E,2D,4 | 
[V:1] f2ede3d | 
[V:2] G4g4- | 
[V:3] c8 | 
[V:4] C,8 | 
[V:1] e2d4c2- | 
[V:2] g2f2e3d/c/ | 
[V:3] z4z2e2 | 
[V:4] z8 | 
[V:1] c2B2c4- | 
[V:2] d4e4 | 
[V:3] g2g2g4 | 
[V:4] G,4C2C2 | 
[V:1] c8- | 
[V:2] z8 | 
[V:3] e8- | 
[V:4] C4A,4- | 
[V:1] c4z4 | 
[V:2] z8 | 
[V:3] e6dc | 
[V:4] A,2G,F,E,2F,2 | 
[V:1] z8 | 
[V:2] z8 | 
[V:3] B2c2d2G2 | 
[V:4] G,2C,2G,4- | 
[V:1] z8 | 
[V:2] z4z2d2 | 
[V:3] d6cB | 
[V:4] G,2F,E,D,2G,2- | 
[V:1] z8 | 
[V:2] e2d4g2 | 
[V:3] A4z2G2 | 
[V:4] G,2F,2G,4 | 
[V:1] z4z2G2 | 
[V:2] f2g3fe2 | 
[V:3] A2G4c2- | 
[V:4] z4z2E,2 | 
[V:1] A2G4c2- | 
[V:2] d4g4- | 
[V:3] c2B2c2e2- | 
[V:4] F,2G,2C,4 | 
[V:1] c2B2cBAG | 
[V:2] g4z4 | 
[V:3] e2d2e2c2 | 
[V:4] G,4C,4 | 
[V:1] B2A4G2- | 
[V:2] z2f4e2 | 
[V:3] d4c4 | 
[V:4] z8 | 
[V:1] G2FEF2G2 | 
[V:2] e2dcd2c2- | 
[V:3] z8 | 
[V:4] z8 | 
[V:1] E4z2c2- | 
[V:2] cBAGABcd | 
[V:3] z8 | 
[V:4] z8 | 
[V:1] c2B2B2AG | 
[V:2] efg4fe | 
[V:3] z8 | 
[V:4] z8 | 
[V:1] A2G2C3D | 
[V:2] f2g4c2- | 
[V:3] z8 | 
[V:4] z8 | 
[V:1] EFGABcd2- | 
[V:2] cdefgfde | 
[V:3] z8 | 
[V:4] z8 | 
[V:1] dcc4B2 | 
[V:2] feed/c/d4 | 
[V:3] z8 | 
[V:4] z4z2G,2 | 
[V:1] c8 | 
[V:2] c8- | 
[V:3] z2c2edef | 
[V:4] A,G,A,B,C2C,2 | 
[V:1] z4z2G2 | 
[V:2] c4z4 | 
[V:3] g2G2GABc | 
[V:4] C,D,E,F,G,2G,2 | 
[V:1] G2G2G4- | 
[V:2] z8 | 
[V:3] d2d2e3d | 
[V:4] G,2G,2C,D,E,F, | 
[V:1] G2F2E2C2 | 
[V:2] z4z2g2 | 
[V:3] e2d3cc2- | 
[V:4] G,A,_B,2C3=B,/A,/ | 
[V:1] D3C/D/E2C2 | 
[V:2] g2g2g4- | 
[V:3] c2B2cBAG | 
[V:4] G,F,G,2C,2E,2 | 
[V:1] D2A4GF | 
[V:2] g2f2e2c2 | 
[V:3] A3Bcde2- | 
[V:4] D,4A,4 | 
[V:1] G4A4- | 
[V:2] d4e4- | 
[V:3] edd4cB | 
[V:4] _B,4A,4- | 
[V:1] A4z4 | 
[V:2] e4z2d2 | 
[V:3] c4d2B2 | 
[V:4] A,4D,2G,2- | 
[V:1] z2A2B3c | 
[V:2] e2f2g2G2 | 
[V:3] A4G4 | 
[V:4] G,2F,2E,4 | 
[V:1] d2G2B3A/B/ | 
[V:2] B2c2dcde | 
[V:3] z8 | 
[V:4] D,2C,2G,4 | 
[V:1] A2G2A4 | 
[V:2] f2g4^f2 | 
[V:3] z4z2d2 | 
[V:4] z8 | 
[V:1] G4z2A2 | 
[V:2] g4z4 | 
[V:3] e3fg2c2 | 
[V:4] z2C,2E,2F,2 | 
[V:1] B3cd2G2 | 
[V:2] z8 | 
[V:3] e3d/e/d2c2 | 
[V:4] G,F,G,A,B,2C2- | 
[V:1] A2B2c4- | 
[V:2] z2d2e2f2 | 
[V:3] e2d4c2 | 
[V:4] C2B,2A,4 | 
[V:1] c2BAB4 | 
[V:2] g3fe2d2- | 
[V:3] d4z2g2 | 
[V:4] G,8- | 
[V:1] z2G2G3F | 
[V:2] dcc4B2 | 
[V:3] g3fe2d2- | 
[V:4] G,8 | 
[V:1] E2CDEFG2- | 
[V:2] c2e2g3f | 
[V:3] dcc4B2 | 
[V:4] A,4G,4 | 
[V:1] GCG4FE | 
[V:2] e2d3cc2- | 
[V:3] c2BAG2g2- | 
[V:4] z2G,2E,2C,2 | 
[V:1] D4E4 | 
[V:2] c2B2c4 | 
[V:3] g2g2g4 | 
[V:4] G,4z4 | 
[V:1] z2G4G2 | 
[V:2] e6e2 | 
[V:3] g4z2G2 | 
[V:4] C,6C,2 | 
[V:1] G4G4 | 
[V:2] e4d4- | 
[V:3] c6BA | 
[V:4] C,4G,4- | 
[V:1] z2G2c3B | 
[V:2] d2d2f4 | 
[V:3] B4A4- | 
[V:4] G,4z2A,2 | 
[V:1] A3GF2E2- | 
[V:2] e4z4 | 
[V:3] A4z4 | 
[V:4] C3B,A,2G,2 | 
[V:1] E2D2E4 | 
[V:2] z2A2c2B2 | 
[V:3] z4z2G2 | 
[V:4] F,4E,4 | 
[V:1] z4z2E2 | 
[V:2] c2d2e2AB | 
[V:3] g3fe3d | 
[V:4] z2G,2C3B, | 
[V:1] F2G2A4 | 
[V:2] cde4d2 | 
[V:3] c2B4A2 | 
[V:4] A,2G,2F,4 | 
[V:1] G8 ||  
[V:2] e8 ||  
[V:3] B8 ||  
[V:4] E,8 ||  
[V:1]  [K:C] [K:clef=treble][M:2/1]z8 | 
[V:2]  [K:C] [K:clef=treble-8][M:2/1]c4f4- | 
[V:3]  [K:C] [K:clef=treble-8][M:2/1]z8 | 
[V:4]  [K:C] [K:clef=bass][M:2/1]z8 | 
[V:1] z8 | 
[V:2] f2f2e2d2 | 
[V:3] z4G4 | 
[V:4] z8 | 
[V:1] z8 | 
[V:2] e3defg2- | 
[V:3] c6c2 | 
[V:4] C,6C,2 | 
[V:1] z8 | 
[V:2] g2fed4 | 
[V:3] B2A2B4 | 
[V:4] E,2F,2G,4 | 
[V:1] z8 | 
[V:2] e4z2c2- | 
[V:3] A2G2A3G | 
[V:4] C,4F,4- | 
[V:1] z8 | 
[V:2] c2c2e2f2 | 
[V:3] ABc4BA | 
[V:4] F,2F,2E,2D,2 | 
[V:1] z4G4 | 
[V:2] g4e4 | 
[V:3] G2c4B2 | 
[V:4] E,4z2E,2 | 
[V:1] c6c/B/A/G/ | 
[V:2] c2f2edg2- | 
[V:3] A4G4 | 
[V:4] F,3E,C,2E,2 | 
[V:1] A2A2B2B2 | 
[V:2] g2^f2g3=f/e/ | 
[V:3] d8 | 
[V:4] D,4G,4- | 
[V:1] G8 | 
[V:2] dcd2e4 | 
[V:3] B4z2G2 | 
[V:4] G,4C,4- | 
[V:1] z4G4- | 
[V:2] z8 | 
[V:3] A2B4G2 | 
[V:4] C,2D,2E,4 | 
[V:1] G2A2B4 | 
[V:2] z8 | 
[V:3] c4d2e2- | 
[V:4] C,4G,4 | 
[V:1] G2c4B2 | 
[V:2] z4c2d2 | 
[V:3] e2c2e2g2- | 
[V:4] E,2A,4G,2 | 
[V:1] c4z4 | 
[V:2] e2c2g4 | 
[V:3] gfede2d2- | 
[V:4] C6B,2 | 
[V:1] c4B2A2- | 
[V:2] f2e2-edd2- | 
[V:3] d2c2d4 | 
[V:4] A,4G,2F,2 | 
[V:1] A2G4^F2 | 
[V:2] dccBd4 | 
[V:3] G4z2A2 | 
[V:4] E,4D,4 | 
[V:1] G3F/E/F2G2- | 
[V:2] z4z2c2 | 
[V:3] B2c2d2e2- | 
[V:4] z8 | 
[V:1] GFE2D4 | 
[V:2] g4g4 | 
[V:3] edc4B2 | 
[V:4] z2C,2G,2G,2 | 
[V:1] z8 | 
[V:2] e3fg2a2- | 
[V:3] c4z4 | 
[V:4] A,2C3B,CA, | 
[V:1] z2G2A2c2- | 
[V:2] a2g4^f2 | 
[V:3] z8 | 
[V:4] B,2C2A,4 | 
[V:1] c2B2A4 | 
[V:2] g3df2e2- | 
[V:3] z2G2A2c2- | 
[V:4] G,4z4 | 
[V:1] G3DF2E2- | 
[V:2] e2d4c2 | 
[V:3] c2B2A4 | 
[V:4] z2G,2A,2C2- | 
[V:1] E2D4C2 | 
[V:2] d2G2A2c2- | 
[V:3] G2g4^f2 | 
[V:4] C2B,2A,4 | 
[V:1] D4E3F | 
[V:2] c2B2A4 | 
[V:3] g4z2c2 | 
[V:4] G,4z4 | 
[V:1] G2A4G2- | 
[V:2] G2d3Ac2 | 
[V:3] d2f4e2 | 
[V:4] z4z2C,2 | 
[V:1] G2^F2G2C2 | 
[V:2] B2A4G2- | 
[V:3] d4c3G | 
[V:4] D,2F,4E,2 | 
[V:1] D2F4E2 | 
[V:2] G2F2G3A | 
[V:3] B2A4G2- | 
[V:4] D,4C,4 | 
[V:1] D2d3cc2- | 
[V:2] B2A2B2c2 | 
[V:3] G2F2G2A2 | 
[V:4] D,4z4 | 
[V:1] c2B2c4- | 
[V:2] d4c4 | 
[V:3] G4z4 | 
[V:4] z4F,4- | 
[V:1] c4z4 | 
[V:2] z4g4- | 
[V:3] c6c2 | 
[V:4] F,2F,2E,2C,2 | 
[V:1] z8 | 
[V:2] g2f2e2d2 | 
[V:3] B2A2B3c | 
[V:4] E,2F,2G,3A, | 
[V:1] z8 | 
[V:2] g8 | 
[V:3] d2e3dg2- | 
[V:4] B,2C3B,G,2 | 
[V:1] z2c4B2 | 
[V:2] c3de2d2- | 
[V:3] g2^f2g4- | 
[V:4] A,4G,4 | 
[V:1] B2AGA2G2- | 
[V:2] d2c4B2 | 
[V:3] g2fed4 | 
[V:4] z2E,2F,2G,2 | 
[V:1] GFEDC2c2- | 
[V:2] c4z2a2- | 
[V:3] z2g4f2 | 
[V:4] C,4z4 | 
[V:1] c2d2B2c2- | 
[V:2] a2gfg2a2 | 
[V:3] f2ede2AB | 
[V:4] z8 | 
[V:1] c2B2G2A2- | 
[V:2] g4z4 | 
[V:3] cde2d3c | 
[V:4] z2G,4F,2 | 
[V:1] A2GFG2F2 | 
[V:2] z8 | 
[V:3] A2B2G2A2 | 
[V:4] F,2E,D,E,2D,2 | 
[V:1] DEFEFGA2- | 
[V:2] z4z2d2 | 
[V:3] B2c2d3c/B/ | 
[V:4] G,2F,2D,3E, | 
[V:1] ADG4^F2 | 
[V:2] d2d2d2d2 | 
[V:3] AGB2A4 | 
[V:4] F,2G,2D,4 | 
[V:1] G4z2B2 | 
[V:2] d6d2 | 
[V:3] G4z2g2 | 
[V:4] z2G,2G,2G,2 | 
[V:1] B2B2B2B2 | 
[V:2] d4d4 | 
[V:3] g2g2g2g2 | 
[V:4] G,2G,2G,4 | 
[V:1] c3B/A/G2A2 | 
[V:2] e6dc | 
[V:3] g6f2 | 
[V:4] C,3D,E,2F,2 | 
[V:1] G2F2G4- | 
[V:2] B2c4B2 | 
[V:3] e2c2d4 | 
[V:4] G,2A,2G,4 | 
[V:1] G4z4 | 
[V:2] c8- | 
[V:3] e4z2G2 | 
[V:4] C,8- | 
[V:1] z2G2A2G2 | 
[V:2] c4z4 | 
[V:3] A2G2c4- | 
[V:4] C,8 | 
[V:1] c4B2A2- | 
[V:2] z8 | 
[V:3] c2BAG2AG | 
[V:4] z8 | 
[V:1] AGG2FEA2- | 
[V:2] z8 | 
[V:3] ABc2dcde | 
[V:4] z8 | 
[V:1] A2G2F4 | 
[V:2] z8 | 
[V:3] f2e4d2 | 
[V:4] z8 | 
[V:1] E4z4 | 
[V:2] z2c2edef | 
[V:3] e3dcBc2 | 
[V:4] z4z2C,2 | 
[V:1] z8 | 
[V:2] g6d2 | 
[V:3] B8 | 
[V:4] E,D,E,F,G,4- | 
[V:1] z4z2G2 | 
[V:2] g2g2g4- | 
[V:3] z2G2BABc | 
[V:4] G,2D,2G,2G,2 | 
[V:1] BABcd4- | 
[V:2] g4z2g2- | 
[V:3] d6G2 | 
[V:4] G,8 | 
[V:1] d2A2d2d2 | 
[V:2] g2f2f3e | 
[V:3] d2d2d4- | 
[V:4] z4_B,4- | 
[V:1] d4c4 | 
[V:2] f2g2a4 | 
[V:3] d2d2e2f2 | 
[V:4] B,4A,4 | 
[V:1] B2d3cc2- | 
[V:2] d6e2 | 
[V:3] g8- | 
[V:4] G,3A,B,2C2 | 
[V:1] c2B2c3B/A/ | 
[V:2] d4c4- | 
[V:3] g8 | 
[V:4] G,4C,3D, | 
[V:1] G2A2G2A2- | 
[V:2] c4z4 | 
[V:3] z4c4 | 
[V:4] E,2F,2E,2F,2- | 
[V:1] A2GFE4 | 
[V:2] F4G2G2- | 
[V:3] A2c4BA | 
[V:4] F,2E,D,C,D,E,F, | 
[V:1] D2G4F2 | 
[V:2] GABcd4 | 
[V:3] B2G2A4 | 
[V:4] G,2E,2D,4 | 
[V:1] G2E2D4- | 
[V:2] z2g4g2 | 
[V:3] G2B4B2 | 
[V:4] z2E,2G,2G,2 | 
[V:1] D4z2C2 | 
[V:2] g2d2f3g | 
[V:3] B2B2A3B | 
[V:4] G,2G,2D,2F,2- | 
[V:1] CDEFG2G2 | 
[V:2] a2g2e4 | 
[V:3] cAB2z2B2- | 
[V:4] F,2E,2C,D,E,F, | 
[V:1] G2G2E3D | 
[V:2] d2e2c4 | 
[V:3] B2c2G3A | 
[V:4] G,2C,3D,E,F, | 
[V:1] E2F3EE2- | 
[V:2] z2FGABc2- | 
[V:3] B2c3BAG | 
[V:4] G,2A,3G,F,E, | 
[V:1] E2D2E4- | 
[V:2] c2BAG2g2- | 
[V:3] A4B4 | 
[V:4] F,4E,4- | 
[V:1] E4z4 | 
[V:2] gfedc2e2 | 
[V:3] z2G2A2c2- | 
[V:4] E,4z4 | 
[V:1] z8 | 
[V:2] d4z2c2 | 
[V:3] c2B2c4 | 
[V:4] z4z2F,2 | 
[V:1] z8 | 
[V:2] d2f4e2 | 
[V:3] A4z4 | 
[V:4] F,2F,2G,4 | 
[V:1] z8 | 
[V:2] d2c4B2 | 
[V:3] z8 | 
[V:4] F,2E,2D,4 | 
[V:1] z2G2A2c2- | 
[V:2] c4A4 | 
[V:3] z2c2c2c2 | 
[V:4] C,4z4 | 
[V:1] c2B2A2G2- | 
[V:2] z2G2A2B2 | 
[V:3] d4c2B2 | 
[V:4] z8 | 
[V:1] G2^F2G4 | 
[V:2] cBcde2d2 | 
[V:3] A4G4- | 
[V:4] z8 | 
[V:1] z2B2c2B2 | 
[V:2] z2G2A2B2 | 
[V:3] G4z2G2 | 
[V:4] z8 | 
[V:1] A4G4 | 
[V:2] cBcde4 | 
[V:3] A2c4B2 | 
[V:4] z4z2E,2 | 
[V:1] z2E2F2D2 | 
[V:2] d2c4B2 | 
[V:3] A2G4F2 | 
[V:4] F,2E,2D,4 | 
[V:1] E3FG4 | 
[V:2] c4d2e2 | 
[V:3] G3AB2c2 | 
[V:4] C,4z2C,2 | 
[V:1] z2G2A2B2 | 
[V:2] f2g4f2 | 
[V:3] d2e2f2d2 | 
[V:4] F,2E,2D,4 | 
[V:1] cBcde2d2- | 
[V:2] g8- | 
[V:3] e3dc2Bc | 
[V:4] C,2C3B,G,2 | 
[V:1] dcc4B2 | 
[V:2] g4g4- | 
[V:3] dBe2d4 | 
[V:4] B,2C2G,4 | 
[V:1] c8- | 
[V:2] g2a4gf | 
[V:3] c8- | 
[V:4] E,2F,4E,D, | 
[V:1] c8 |]  
[V:2] e8 |]  
[V:3] c8 |]  
[V:4] C,8 |]  



